Numix-Square/48x48/apps/gromit.svg

<svg xmlns="http://www.w3.org/2000/svg" xmlns:xlink="http://www.w3.org/1999/xlink" width="48" viewBox="0 0 13.546667 13.546667" height="48">
 <defs>
  <linearGradient id="0">
   <stop stop-color="#83b029"/>
   <stop offset="1" stop-color="#b3da5b"/>
  </linearGradient>
  <clipPath>
   <rect width="20" x="1" y="1" rx="2" height="20" fill="#fff" fill-rule="evenodd"/>
  </clipPath>
  <clipPath>
   <rect width="84" x="6" y="6" rx="6" height="84" fill="#fff"/>
  </clipPath>
  <clipPath>
   <path d="M 54.1,12.5 12.9,54.7 C -2.7,70.3 23,69 32.3,74.9 36.6,77.7 18.5,81.3 22.2,85 c 3.6,3.7 21.7,7.1 25.3,10.7 3.6,3.7 -7.3,7.6 -3.7,11.3 3.5,3.7 11.9,0.2 13.4,8.6 1.1,6.2 15.4,3.1 21.8,-2.2 4,-3.4 -6.9,-3.4 -3.3,-7.1 9,-9.1 17,-4.1 20.3,-12.5 1.8,-4.5 -13.6,-7.7 -9.5,-10.6 9.8,-6.9 45.8,-10.4 29.2,-27 L 73,12.5 c -5.3,-5 -14,-5 -18.9,0 z m -9.9,64.7 c 0.9,0 30.8,4 19.3,7.1 -4.4,1.2 -24.6,-7.1 -19.3,-7.1 z m 57.2,16.6 c 0,2.1 16.3,3.3 15.4,-0.5 -1.3,-6.4 -13.6,-5.9 -15.4,0.5 z m -69.5,11.1 c 3.7,3.2 9.3,-0.7 11.1,-5.2 -3.6,-4.7 -16.9,0.3 -11.1,5.2 z m 67.5,-6.7 c -4.6,4.2 0.8,8.6 5.3,5.7 1.2,-0.8 -0.1,-4.7 -5.3,-5.7 z"/>
  </clipPath>
  <clipPath>
   <rect width="96" x="-100" height="96" fill="#fff"/>
  </clipPath>
  <clipPath>
   <path d="M 95.311,352.545 L 476.403,352.545 L 476.403,71.4229 L 95.311,71.4229 L 95.311,352.545 z"/>
  </clipPath>
  <clipPath>
   <path d="M 93.311,354.545 L 478.511,354.545 L 478.511,69.1846 L 93.311,69.1846 L 93.311,354.545 z"/>
  </clipPath>
  <clipPath>
   <path d="M 93.311,69.185 L 478.511,69.185 L 478.511,354.545 L 93.311,354.545 L 93.311,69.185 z"/>
  </clipPath>
  <clipPath>
   <path d="M 92.311,355.545 L 479.511,355.545 L 479.511,68.1846 L 92.311,68.1846 L 92.311,355.545 z"/>
  </clipPath>
  <linearGradient gradientTransform="matrix(0.28222223,0,0,0.28222223,0,-283.45334)" xlink:href="#0" id="1" y1="1050.36" x2="0" y2="1006.36" gradientUnits="userSpaceOnUse"/>
 </defs>
 <g transform="matrix(0.28222223,0,0,0.28222223,0,-283.45334)">
  <path transform="translate(0,1004.3622)" d="M 5.1875,1 C 2.8707723,1 1,2.8707723 1,5.1875 l 0,37.625 C 1,45.129228 2.8707723,47 5.1875,47 l 37.625,0 C 45.129228,47 47,45.129228 47,42.8125 L 47,5.1875 C 47,2.8707723 45.129228,1 42.8125,1 L 5.1875,1 z m 0.1875,0.25 37.25,0 c 2.291546,0 4.125,1.8334541 4.125,4.125 l 0,37.25 c 0,2.291546 -1.833454,4.125 -4.125,4.125 l -37.25,0 C 3.0834541,46.75 1.25,44.916546 1.25,42.625 l 0,-37.25 C 1.25,3.0834541 3.0834541,1.25 5.375,1.25 z" opacity="0.05"/>
  <path transform="translate(0,1004.3622)" d="M 5.375,1.25 C 3.0834541,1.25 1.25,3.0834541 1.25,5.375 l 0,37.25 c 0,2.291546 1.8334541,4.125 4.125,4.125 l 37.25,0 c 2.291546,0 4.125,-1.833454 4.125,-4.125 l 0,-37.25 C 46.75,3.0834541 44.916546,1.25 42.625,1.25 l -37.25,0 z m 0.21875,0.25 36.8125,0 C 44.672614,1.5 46.5,3.3273859 46.5,5.59375 l 0,36.8125 C 46.5,44.672614 44.672614,46.5 42.40625,46.5 l -36.8125,0 C 3.3273859,46.5 1.5,44.672614 1.5,42.40625 l 0,-36.8125 C 1.5,3.3273859 3.3273859,1.5 5.59375,1.5 z" opacity="0.1"/>
  <path transform="translate(0,1004.3622)" d="M 5.59375,1.5 C 3.3273859,1.5 1.5,3.3273859 1.5,5.59375 l 0,36.8125 C 1.5,44.672614 3.3273859,46.5 5.59375,46.5 l 36.8125,0 C 44.672614,46.5 46.5,44.672614 46.5,42.40625 l 0,-36.8125 C 46.5,3.3273859 44.672614,1.5 42.40625,1.5 l -36.8125,0 z m 0.09375,0.125 36.625,0 c 2.253773,0 4.0625,1.8087269 4.0625,4.0625 l 0,36.625 c 0,2.253773 -1.808727,4.0625 -4.0625,4.0625 l -36.625,0 c -2.2537731,0 -4.0625,-1.808727 -4.0625,-4.0625 l 0,-36.625 C 1.625,3.4337269 3.4337269,1.625 5.6875,1.625 z" opacity="0.2"/>
  <path transform="translate(0,1004.3622)" d="M 5.6875,1.625 C 3.4337269,1.625 1.625,3.4337269 1.625,5.6875 l 0,36.625 c 0,2.253773 1.8087269,4.0625 4.0625,4.0625 l 36.625,0 c 2.253773,0 4.0625,-1.808727 4.0625,-4.0625 l 0,-36.625 c 0,-2.2537731 -1.808727,-4.0625 -4.0625,-4.0625 l -36.625,0 z m 0.09375,0.125 36.4375,0 c 2.241182,0 4.03125,1.7900679 4.03125,4.03125 l 0,36.4375 c 0,2.241182 -1.790068,4.03125 -4.03125,4.03125 l -36.4375,0 C 3.5400679,46.25 1.75,44.459932 1.75,42.21875 l 0,-36.4375 C 1.75,3.5400679 3.5400679,1.75 5.78125,1.75 z" opacity="0.3"/>
  <path transform="translate(0,1004.3622)" d="M 5.78125,1.75 C 3.5400679,1.75 1.75,3.5400679 1.75,5.78125 l 0,36.4375 c 0,2.241182 1.7900679,4.03125 4.03125,4.03125 l 36.4375,0 c 2.241182,0 4.03125,-1.790068 4.03125,-4.03125 l 0,-36.4375 C 46.25,3.5400679 44.459932,1.75 42.21875,1.75 l -36.4375,0 z m 0.125,0.125 36.1875,0 c 2.228591,0 4.03125,1.802659 4.03125,4.03125 l 0,36.1875 c 0,2.228591 -1.802659,4.03125 -4.03125,4.03125 l -36.1875,0 C 3.677659,46.125 1.875,44.322341 1.875,42.09375 l 0,-36.1875 C 1.875,3.677659 3.677659,1.875 5.90625,1.875 z" opacity="0.4"/>
  <rect width="44.25" height="44.25" x="1.875" y="1006.24" rx="4.02" opacity="0.5"/>
 </g>
 <rect width="12.418" height="12.418" x="0.564" y="0.564" rx="1.129" fill="url(#1)"/>
 <path d="M 6.105168,8.2150899 C 5.9593797,8.1537498 5.9177546,7.9369536 6.0989342,7.7508932 6.2801139,7.5647669 6.6841653,7.4093765 7.1236081,7.2150892 7.5631179,7.0208018 8.037952,6.7876833 8.3524526,6.7978847 8.6669531,6.8081519 8.9387179,7.1001845 8.9657977,7.4765176 8.9928774,7.8527848 8.905944,8.3517321 8.8039257,8.7075965 8.7018404,9.0634609 8.6892611,9.2375995 8.5497065,9.3009798 8.4101519,9.3643601 8.1567625,9.3940054 8.1650741,9.0586754 8.1733857,8.7232797 8.3127264,8.0485174 8.3585744,7.7581394 8.4044223,7.4677615 8.212898,7.4461674 8.0567202,7.4890791 7.9004754,7.5320566 7.6880601,7.6138653 7.4610326,7.7202231 7.234005,7.8265152 6.9924321,7.9574222 6.7466364,8.0699009 6.5009078,8.1823796 6.2509562,8.2764299 6.105168,8.2150899" fill="#d64937" stroke="#2d2d2d" stroke-width="0.213"/>
 <path d="M 6.7337669,4.7216749 C 6.2464653,5.1122241 5.817412,5.6071566 5.5008336,6.0795145 5.1842551,6.5519381 4.9801515,7.0018529 4.8592981,7.4067498 c -0.1207194,0.404897 -0.1582557,0.764842 -0.08325,1.1186661 0.074939,0.3537583 0.262419,0.7013958 0.587309,0.826182 0.32489,0.1247203 0.7872568,0.026589 1.174685,-0.1186654 C 6.925403,9.0877435 7.2378257,8.8954964 7.4502409,8.5847156 7.6627231,8.273869 7.7751309,7.8444229 7.9167634,7.6726444 8.0583959,7.5008002 8.2291861,7.5866894 8.2541879,7.8485035 8.2791898,8.1102517 8.1583363,8.547859 7.9730009,8.8771339 7.7876654,9.206343 7.5377139,9.4272199 7.2024343,9.6133461 6.8670877,9.7994065 6.4463461,9.9507822 6.0235935,10.014162 5.600774,10.077543 5.1759435,10.052994 4.8447528,9.887336 4.513629,9.7216784 4.2761449,9.4149782 4.1616592,8.9466351 4.0471065,8.4783578 4.0554181,7.8485035 4.1991285,7.2472789 4.3428389,6.6459885 4.621881,6.0733936 5.0884035,5.4905974 5.5549931,4.9077353 6.208929,4.3146718 6.7713031,3.9649941 7.3336103,3.6153163 7.8042886,3.5089585 8.1771045,3.4946107 8.5499203,3.4803287 8.8248737,3.5580568 9.0393668,3.6786966 9.253927,3.7993365 9.4080269,3.9629538 9.4392624,4.1061025 9.470498,4.2492512 9.3788692,4.3719313 9.1706098,4.3105913 8.9622833,4.2492512 8.6373933,4.0038252 8.2021063,4.0242938 7.7668193,4.0447625 7.2211354,4.3310599 6.7337669,4.7216749" fill="#d64937" fill-rule="evenodd" stroke="#2d2d2d" stroke-width="0.213"/>
 <path d="M 6.7337669,4.7216749 C 6.2464653,5.1122241 5.7389685,5.6071566 5.4223901,6.0795145 5.1058117,6.5519381 4.9147821,6.9633416 4.7939286,7.3682385 4.6732092,7.7731355 4.661821,8.210103 4.7368265,8.5639272 4.8117651,8.9176855 4.9861714,9.2909976 5.3110615,9.4157838 5.6359515,9.5405041 6.1767617,9.4295359 6.5641899,9.2842811 6.9515511,9.1390921 7.2378257,8.8954964 7.4502409,8.5847156 7.6627231,8.273869 7.6574661,7.8700975 7.7990985,7.6983191 7.940731,7.5264748 8.2291861,7.5866894 8.2541879,7.8485035 8.2791898,8.1102517 8.1583363,8.547859 7.9730009,8.8771339 7.7876654,9.206343 7.5377139,9.4272199 7.2024343,9.6133461 6.8670877,9.7994065 6.4463461,9.9507822 6.0235935,10.014162 5.600774,10.077543 5.254387,10.078668 4.9231962,9.9130107 4.5920725,9.747353 4.2630709,9.3251183 4.1485852,8.8567752 4.0340324,8.3884979 4.0161967,7.8998521 4.1599071,7.2986275 4.3036174,6.6973371 4.621881,6.0733936 5.0884035,5.4905974 5.5549931,4.9077353 6.208929,4.3146718 6.7713031,3.9649941 7.3336103,3.6153163 7.8042886,3.5089585 8.1771045,3.4946107 8.5499203,3.4803287 8.8248737,3.5580568 9.0393668,3.6786966 9.253927,3.7993365 9.4542501,3.9720311 9.4854857,4.1151798 9.5167212,4.2583285 9.3511352,4.4717807 9.1428758,4.4104406 8.9345494,4.3491006 8.6466379,4.0401343 8.211351,4.0606029 7.776064,4.0810716 7.2211354,4.3310599 6.7337669,4.7216749" fill="#d64937" stroke="#2d2d2d" stroke-width="0.213"/>
 <text x="3.431" y="8.523" font-family="Rufscript" font-style="italic" word-spacing="0" line-height="125%" letter-spacing="0" font-size="2.822"><tspan y="8.523" x="3.431"/>
 </text>
</svg>

<svg viewBox="0 0 48 48"><defs><linearGradient id="linearGradient3764" x1="1" x2="47" gradientUnits="userSpaceOnUse" gradientTransform="translate(-47.997785,0.00221467)"><stop stop-color="#9dca3c" stop-opacity="1"/><stop offset="1" stop-color="#a5ce4c" stop-opacity="1"/></linearGradient><clipPath id="clipPath-741636469"><g transform="translate(0,-1004.3622)"><rect rx="4" y="1005.36" x="1" height="46" width="46" fill="#1890d0"/></g></clipPath><clipPath id="clipPath-758958362"><g transform="translate(0,-1004.3622)"><rect rx="4" y="1005.36" x="1" height="46" width="46" fill="#1890d0"/></g></clipPath></defs><g><g transform="translate(0,-1004.3622)"><path d="m 5 1006.36 c -2.216 0 -4 1.784 -4 4 l 0 37.25 c 0 2.216 1.784 4 4 4 l 38 0 c 2.216 0 4 -1.784 4 -4 l 0 -37.25 c 0 -2.216 -1.784 -4 -4 -4 l -38 0 z m -4 41.5 0 0.5 c 0 2.216 1.784 4 4 4 l 38 0 c 2.216 0 4 -1.784 4 -4 l 0 -0.5 c 0 2.216 -1.784 4 -4 4 l -38 0 c -2.216 0 -4 -1.784 -4 -4 z" opacity="0.02"/><path d="m 1 1047.61 0 0.25 c 0 2.216 1.784 4 4 4 l 38 0 c 2.216 0 4 -1.784 4 -4 l 0 -0.25 c 0 2.216 -1.784 4 -4 4 l -38 0 c -2.216 0 -4 -1.784 -4 -4 z" opacity="0.05"/><rect width="46" height="46" x="1" y="1005.61" rx="4" opacity="0.1"/></g></g><g><rect width="46" height="46" x="-46.998" y="1" rx="4" transform="matrix(0,-1,1,0,0,0)" fill="url(#linearGradient3764)" fill-opacity="1"/></g><g/><g><g clip-path="url(#clipPath-741636469)"><g opacity="0.1"><!-- color: #a5ce4c --><g><path d="m 6.105 8.215 c -0.148 -0.063 -0.187 -0.278 -0.008 -0.464 c 0.183 -0.186 0.584 -0.342 1.024 -0.536 c 0.44 -0.194 0.914 -0.43 1.229 -0.419 c 0.315 0.011 0.585 0.302 0.613 0.678 c 0.026 0.377 -0.06 0.875 -0.162 1.231 c -0.103 0.356 -0.115 0.53 -0.254 0.593 c -0.14 0.063 -0.396 0.093 -0.386 -0.244 c 0.009 -0.334 0.149 -1.01 0.194 -1.301 c 0.044 -0.291 -0.148 -0.312 -0.302 -0.269 c -0.155 0.043 -0.368 0.127 -0.595 0.233 c -0.227 0.106 -0.47 0.237 -0.714 0.348 c -0.246 0.111 -0.496 0.206 -0.641 0.147" transform="matrix(3.543307,0,0,3.543307,0,0)" stroke-opacity="1" fill-rule="nonzero" stroke="#2d2d2d" stroke-linejoin="miter" fill-opacity="1" stroke-linecap="butt" stroke-width="0.213" stroke-miterlimit="4" fill="#000"/><path d="m 6.734 4.722 c -0.486 0.391 -0.916 0.885 -1.233 1.358 c -0.317 0.472 -0.521 0.922 -0.642 1.327 c -0.121 0.405 -0.161 0.765 -0.086 1.119 c 0.075 0.354 0.262 0.701 0.59 0.826 c 0.325 0.125 0.787 0.028 1.175 -0.119 c 0.387 -0.143 0.699 -0.337 0.912 -0.648 c 0.212 -0.311 0.325 -0.74 0.465 -0.912 c 0.141 -0.172 0.313 -0.086 0.336 0.176 c 0.025 0.26 -0.096 0.699 -0.281 1.029 c -0.184 0.33 -0.432 0.55 -0.771 0.736 c -0.335 0.185 -0.756 0.336 -1.18 0.4 c -0.422 0.064 -0.849 0.04 -1.178 -0.129 c -0.331 -0.163 -0.569 -0.472 -0.684 -0.938 c -0.117 -0.471 -0.107 -1.098 0.035 -1.699 c 0.144 -0.603 0.423 -1.174 0.891 -1.757 c 0.465 -0.583 1.12 -1.176 1.681 -1.526 c 0.562 -0.353 1.033 -0.456 1.408 -0.473 c 0.374 -0.011 0.647 0.065 0.861 0.184 c 0.215 0.121 0.368 0.284 0.399 0.429 c 0.032 0.141 -0.06 0.267 -0.269 0.205 c -0.206 -0.064 -0.53 -0.31 -0.969 -0.289 c -0.432 0.02 -0.98 0.31 -1.465 0.698" transform="matrix(3.543307,0,0,3.543307,0,0)" stroke-opacity="1" fill-rule="evenodd" stroke="#2d2d2d" stroke-linejoin="miter" fill-opacity="1" stroke-linecap="butt" stroke-width="0.213" stroke-miterlimit="4" fill="#000"/><path d="m 6.734 4.722 c -0.486 0.391 -0.992 0.885 -1.311 1.358 c -0.316 0.472 -0.508 0.884 -0.628 1.289 c -0.118 0.408 -0.129 0.842 -0.054 1.196 c 0.075 0.354 0.248 0.729 0.571 0.852 c 0.325 0.125 0.869 0.014 1.253 -0.132 c 0.387 -0.142 0.674 -0.389 0.886 -0.7 c 0.212 -0.311 0.206 -0.712 0.346 -0.884 c 0.142 -0.172 0.431 -0.111 0.455 0.151 c 0.025 0.259 -0.096 0.699 -0.281 1.029 c -0.185 0.33 -0.432 0.55 -0.771 0.736 c -0.335 0.183 -0.756 0.334 -1.181 0.398 c -0.421 0.065 -0.767 0.065 -1.099 -0.098 c -0.332 -0.166 -0.659 -0.591 -0.774 -1.056 c -0.117 -0.471 -0.132 -0.957 0.01 -1.558 c 0.142 -0.603 0.463 -1.227 0.927 -1.808 c 0.466 -0.583 1.12 -1.176 1.682 -1.528 c 0.562 -0.351 1.033 -0.454 1.407 -0.471 c 0.375 -0.014 0.647 0.063 0.862 0.184 c 0.215 0.121 0.417 0.293 0.445 0.437 c 0.031 0.142 -0.133 0.356 -0.343 0.294 c -0.208 -0.061 -0.496 -0.369 -0.934 -0.348 c -0.433 0.021 -0.99 0.269 -1.476 0.659" transform="matrix(3.543307,0,0,3.543307,0,0)" stroke-opacity="1" fill-rule="nonzero" stroke="#2d2d2d" stroke-linejoin="miter" fill-opacity="1" stroke-linecap="butt" stroke-width="0.213" stroke-miterlimit="4" fill="#000"/></g></g></g></g><g><g clip-path="url(#clipPath-758958362)"><g transform="translate(0,-1)"><!-- color: #a5ce4c --><g><path d="m 6.105 8.215 c -0.148 -0.063 -0.187 -0.278 -0.008 -0.464 c 0.183 -0.186 0.584 -0.342 1.024 -0.536 c 0.44 -0.194 0.914 -0.43 1.229 -0.419 c 0.315 0.011 0.585 0.302 0.613 0.678 c 0.026 0.377 -0.06 0.875 -0.162 1.231 c -0.103 0.356 -0.115 0.53 -0.254 0.593 c -0.14 0.063 -0.396 0.093 -0.386 -0.244 c 0.009 -0.334 0.149 -1.01 0.194 -1.301 c 0.044 -0.291 -0.148 -0.312 -0.302 -0.269 c -0.155 0.043 -0.368 0.127 -0.595 0.233 c -0.227 0.106 -0.47 0.237 -0.714 0.348 c -0.246 0.111 -0.496 0.206 -0.641 0.147" transform="matrix(3.543307,0,0,3.543307,0,0)" stroke-opacity="1" fill="#d64936" fill-rule="nonzero" stroke="#2d2d2d" stroke-linejoin="miter" fill-opacity="1" stroke-linecap="butt" stroke-width="0.213" stroke-miterlimit="4"/><path d="m 6.734 4.722 c -0.486 0.391 -0.916 0.885 -1.233 1.358 c -0.317 0.472 -0.521 0.922 -0.642 1.327 c -0.121 0.405 -0.161 0.765 -0.086 1.119 c 0.075 0.354 0.262 0.701 0.59 0.826 c 0.325 0.125 0.787 0.028 1.175 -0.119 c 0.387 -0.143 0.699 -0.337 0.912 -0.648 c 0.212 -0.311 0.325 -0.74 0.465 -0.912 c 0.141 -0.172 0.313 -0.086 0.336 0.176 c 0.025 0.26 -0.096 0.699 -0.281 1.029 c -0.184 0.33 -0.432 0.55 -0.771 0.736 c -0.335 0.185 -0.756 0.336 -1.18 0.4 c -0.422 0.064 -0.849 0.04 -1.178 -0.129 c -0.331 -0.163 -0.569 -0.472 -0.684 -0.938 c -0.117 -0.471 -0.107 -1.098 0.035 -1.699 c 0.144 -0.603 0.423 -1.174 0.891 -1.757 c 0.465 -0.583 1.12 -1.176 1.681 -1.526 c 0.562 -0.353 1.033 -0.456 1.408 -0.473 c 0.374 -0.011 0.647 0.065 0.861 0.184 c 0.215 0.121 0.368 0.284 0.399 0.429 c 0.032 0.141 -0.06 0.267 -0.269 0.205 c -0.206 -0.064 -0.53 -0.31 -0.969 -0.289 c -0.432 0.02 -0.98 0.31 -1.465 0.698" transform="matrix(3.543307,0,0,3.543307,0,0)" stroke-opacity="1" fill="#d64936" fill-rule="evenodd" stroke="#2d2d2d" stroke-linejoin="miter" fill-opacity="1" stroke-linecap="butt" stroke-width="0.213" stroke-miterlimit="4"/><path d="m 6.734 4.722 c -0.486 0.391 -0.992 0.885 -1.311 1.358 c -0.316 0.472 -0.508 0.884 -0.628 1.289 c -0.118 0.408 -0.129 0.842 -0.054 1.196 c 0.075 0.354 0.248 0.729 0.571 0.852 c 0.325 0.125 0.869 0.014 1.253 -0.132 c 0.387 -0.142 0.674 -0.389 0.886 -0.7 c 0.212 -0.311 0.206 -0.712 0.346 -0.884 c 0.142 -0.172 0.431 -0.111 0.455 0.151 c 0.025 0.259 -0.096 0.699 -0.281 1.029 c -0.185 0.33 -0.432 0.55 -0.771 0.736 c -0.335 0.183 -0.756 0.334 -1.181 0.398 c -0.421 0.065 -0.767 0.065 -1.099 -0.098 c -0.332 -0.166 -0.659 -0.591 -0.774 -1.056 c -0.117 -0.471 -0.132 -0.957 0.01 -1.558 c 0.142 -0.603 0.463 -1.227 0.927 -1.808 c 0.466 -0.583 1.12 -1.176 1.682 -1.528 c 0.562 -0.351 1.033 -0.454 1.407 -0.471 c 0.375 -0.014 0.647 0.063 0.862 0.184 c 0.215 0.121 0.417 0.293 0.445 0.437 c 0.031 0.142 -0.133 0.356 -0.343 0.294 c -0.208 -0.061 -0.496 -0.369 -0.934 -0.348 c -0.433 0.021 -0.99 0.269 -1.476 0.659" transform="matrix(3.543307,0,0,3.543307,0,0)" stroke-opacity="1" fill="#d64936" fill-rule="nonzero" stroke="#2d2d2d" stroke-linejoin="miter" fill-opacity="1" stroke-linecap="butt" stroke-width="0.213" stroke-miterlimit="4"/></g></g></g></g><g><g transform="translate(0,-1004.3622)"><path d="m 1 1043.36 0 4 c 0 2.216 1.784 4 4 4 l 38 0 c 2.216 0 4 -1.784 4 -4 l 0 -4 c 0 2.216 -1.784 4 -4 4 l -38 0 c -2.216 0 -4 -1.784 -4 -4 z" opacity="0.1"/></g></g></svg>
